X: 25809
T: Mason's Apron, The
R: reel
M: 4/4
K: Gmajor
gbdg bdgb|acea beab|gbdg bdga|fadf adfz|
~g2dg bdgb|acea ceab|gbdg bdga|fdef gzdf|
gbdg bdgb|acea ceaz|~g2dg (3bgd ga|fadf adfz|
~g2dg bdgb|acea ceab|gbdg bdga|fdef ~g3z|
~g2DG BEGE|DEGA BGAB|c ~A3 BAAG|~g3z (3Bcd ef|
~g3B EGGE|DzDG BDGB|cBcd eg (3gfe|dcBA ~g3z|
~g2DG BEGE|DEGA BGAB|c ~A3 BzAG|FGGF (3Bcd ef|
gz ~G2 BAGE|DEGA BGAB|cz cd eaag|fdBA ~G3z
ABDB EBDB|~B2DB EBDB|BceB fBeB|BzeB fBeB|
~B2DB EBDB|~B2DB EBDz|cBcd eg (3gfe|dcBA ~G3A|
BzDB EBDB|~B2DB EBDz|BceB fBeB|BzeB fBeB|
~B2 DB EBDB|~B2DB EBDz|cBcd eg (3gfe|dcBA|~g3A|
ABgB aBgB|~B2gB aBgz|Bcac bcac|Bcac bcaB|
~B2gB aBgz|~B2gB aBgB|czcd eg (3gfe|dcBA ~G3A|
BzgB aBgB|~B2gB aBgz|Bcac bcac|Bcac bcaB|
~B2gB aBgB|~B2gB aBgz|cBcd eg (3gfe|dcBA ~g3z|
g~d3 g~d3|gzga fdeg|a~e3 a~e3|azga fdBd|
~g2dg gd~g2|dggd edBz|~g3e d~g3|~a3d ~g3z|
g~d3 g~d3|gzga fdeg|a~e3 a~e3|azga fd (3Bcd|
fgdf gdfg|dfgd ed (3Bcd|gz~g2 dBGB|AGAB ~G3z|
ABGB DGBD|GBDG Bdgd|BcGc EGcE|GcEG (3Bcd) ed|
BzGB DGBD|GBDG (3Bcd Gz|cBcd eg (3gfe|dcBA ~G3A|
BzGB DGBD|GBDG (3BGD (3BGD|BzGB DG (3BGD|(3GBG DG (3BGD GD|
B2GB EG (3BGD|(3GBG DG (3Bcd Gz|cBcd eg (3gfe|dcba ~g3z|
gbdg bdgb|acea ceab|gbdg bdga|fadf adfz|
~g2dg bdgb|acea cz~a2|~g3a bz~g2|~f3a ~g3z|
(3gbg dg (3bgd gb|acea cz~a2|(3gbg dg (3bgd (3bgd|(3faf df (3bfd (3bfd|
(3gbg dg (3bgd gb|acea cz~a2|(3gbg dg bdga|fdef ~g3z|
~g2DG BEGE|DEGA BGAB|cABc dBcd|ecde fdez|
~g3B EGGE|DzDG BDGB|cBcd eaag|fdBA ~G3z|
~g2DG BEGE|DzGA BGAB|cABc dBcd|ecde fdez|
gzfz azgz|czBz AzGz|FzEz Dzcz|BzAz Gz|

